X: 61
T:Ymdaith Marcwis Biwt
T:The Marquis of Bute's March
M:C
L:1/8
Q:150
S:Cadw Twmpath Collection
R:March
A:Wales
Z:brian_martin12345@yahoo.com
K:D
A2|d2d>dd2f>d|B2B>B B>cd>B|A2A>B AGFE|D2D>DD2 (3ABc|
d2d>dd3f|fee>ee2d2|c>Bf>d c>AB>^G|A2A>AA2:||
d2|e2e>ee2f2|g2g>gg2e2|f3f/a/ aggf|fee>ee2A2|
B2g>ec2a>f|dd d/e/d/c/ ee e/f/g/e/|ffg>ed2c2|d2d>dd2:||
